X:179
T:Freilach
M:2/2
L:1/8
R:Reel
K:Dm
"Dmi"A,D FD DF "(F)"AF|"Gmi"G2 GF GA "Dmi"F2|"F"FA cA FAcA|"Gmi"G2 GF GA
"Dmi"F2|
"Gmi"FG "A7"GF FE E_E|"Dmi"D8|"Gmi"FG "A7"GF FEE_E|1 "Dmi"D6 G,2:|2 "Dmi
"D4 A,DFA||
"Dmi"d6 cB | A8 | dAdA dd cB | A8 | "Dmi"d6 c2 | "Emi"e6 dA | "Dmi"dAdA
ddcB | A8 ||
"Dmi"FG AB AB AB | AB AB (3ABA)G2 | "Gmi"GDDG GDDG | GDGA (3GAG)F2 |
"Gmi"FG GF "A7"FE E_E|"Dmi"D8 |
"Gmi"FG GF "A7"FE E_E|"Dmi --no repeat--"D4 A,DFA||
